;FLAVOR:Marlin
;TIME:542
;Filament used: 7.23836m
;Layer height: 1.5
;Generated with Cura_SteamEngine 3.4.1
M109 S0
M82 ;absolute extrusion mode
G28 ;Home
G1 Z15.0 F1800 ;Move the platform down 15mm
;Prime the extruder
G92 E0
;G1 F1150 E1

M302 S0               ;allow cold extrusion
M163 S0 P  1        ;This is the command to split the COM/E input/output
M163 S1 P  1        ;You can see there is a line for each stepper motor
G92 E0
;G1 F1500 E-6.5
;LAYER_COUNT:83
;LAYER:0
M107
G0 F1380 X20.798 Y0.00 Z1.5
;TYPE:WALL-OUTER
G1 F1500 E0
G1 F1380 X20.782 Y0.842 E0.59405
G1 X20.736 Y1.623 E1.14592
G1 X20.649 Y2.499 E1.76689
G1 X20.539 Y3.284 E2.32603
G1 X20.389 Y4.11 E2.91822
G1 X20.207 Y4.926 E3.50796
G1 X20.007 Y5.687 E4.063
G1 X19.755 Y6.505 E4.66677
G1 X19.479 Y7.294 E5.2564
G1 X19.173 Y8.063 E5.84022
G1 X18.848 Y8.797 E6.40646
G1 X18.468 Y9.567 E7.01216
G1 X18.089 Y10.268 E7.57429
G1 X17.652 Y11.001 E8.17626
G1 X17.204 Y11.691 E8.75657
G1 X16.736 Y12.35 E9.32673
G1 X16.224 Y13.015 E9.91874
G1 X15.698 Y13.645 E10.49767
G1 X15.133 Y14.27 E11.09199
G1 X14.56 Y14.854 E11.66911
G1 X13.959 Y15.419 E12.25098
G1 X13.331 Y15.967 E12.83891
G1 X12.699 Y16.473 E13.41
G1 X12.018 Y16.977 E14.00763
G1 X11.343 Y17.435 E14.58303
G1 X10.649 Y17.867 E15.15967
G1 X9.914 Y18.285 E15.75611
G1 X9.184 Y18.662 E16.33567
G1 X8.437 Y19.011 E16.91727
G1 X7.676 Y19.331 E17.49961
G1 X6.896 Y19.623 E18.08711
G1 X6.108 Y19.883 E18.67243
G1 X5.321 Y20.107 E19.24963
G1 X4.508 Y20.305 E19.83988
G1 X3.701 Y20.468 E20.42063
G1 X2.882 Y20.599 E21.00569
G1 X2.07 Y20.696 E21.58255
G1 X1.25 Y20.762 E22.16284
G1 X0.411 Y20.795 E22.75513
G1 X-.411 Y20.795 E23.33496
G1 X-1.25 Y20.762 E23.92725
G1 X-2.07 Y20.696 E24.50754
G1 X-2.882 Y20.599 E25.08439
G1 X-3.701 Y20.468 E25.66946
G1 X-4.508 Y20.305 E26.25021
G1 X-5.321 Y20.107 E26.84046
G1 X-6.108 Y19.883 E27.41765
G1 X-6.896 Y19.623 E28.00298
G1 X-7.676 Y19.331 E28.59048
G1 X-8.437 Y19.011 E29.17281
G1 X-9.184 Y18.662 E29.75442
G1 X-9.914 Y18.285 E30.33397
G1 X-10.649 Y17.867 E30.93042
G1 X-11.343 Y17.435 E31.50706
G1 X-12.018 Y16.977 E32.08246
G1 X-12.699 Y16.473 E32.68008
G1 X-13.331 Y15.967 E33.25117
G1 X-13.959 Y15.419 E33.83911
G1 X-14.56 Y14.854 E34.42097
G1 X-15.133 Y14.27 E34.9981
G1 X-15.698 Y13.645 E35.59241
G1 X-16.224 Y13.015 E36.17134
G1 X-16.736 Y12.35 E36.76336
G1 X-17.204 Y11.691 E37.33351
G1 X-17.652 Y11.001 E37.91383
G1 X-18.089 Y10.268 E38.5158
G1 X-18.468 Y9.567 E39.07793
G1 X-18.848 Y8.797 E39.68362
G1 X-19.173 Y8.063 E40.24987
G1 X-19.479 Y7.294 E40.83368
G1 X-19.755 Y6.505 E41.42331
G1 X-20.007 Y5.687 E42.02709
G1 X-20.207 Y4.926 E42.58212
G1 X-20.389 Y4.11 E43.17187
G1 X-20.539 Y3.284 E43.76405
G1 X-20.649 Y2.499 E44.3232
G1 X-20.736 Y1.623 E44.94417
G1 X-20.782 Y0.842 E45.49604
G1 X-20.798 Y0.00 E46.09009
G1 X-20.782 Y-.842 E46.68414
G1 X-20.736 Y-1.623 E47.23601
G1 X-20.648 Y-2.506 E47.86196
G1 X-20.539 Y-3.284 E48.41611
G1 X-20.389 Y-4.11 E49.0083
G1 X-20.207 Y-4.926 E49.59805
G1 X-20.007 Y-5.687 E50.15308
G1 X-19.755 Y-6.505 E50.75686
G1 X-19.479 Y-7.294 E51.34648
G1 X-19.173 Y-8.063 E51.9303
G1 X-18.848 Y-8.797 E52.49655
G1 X-18.468 Y-9.567 E53.10224
G1 X-18.089 Y-10.268 E53.66437
G1 X-17.652 Y-11.001 E54.26634
G1 X-17.204 Y-11.691 E54.84666
G1 X-16.736 Y-12.35 E55.41681
G1 X-16.224 Y-13.015 E56.00882
G1 X-15.698 Y-13.645 E56.58775
G1 X-15.133 Y-14.27 E57.18207
G1 X-14.56 Y-14.854 E57.75919
G1 X-13.959 Y-15.419 E58.34106
G1 X-13.331 Y-15.967 E58.92899
G1 X-12.699 Y-16.473 E59.50009
G1 X-12.018 Y-16.977 E60.09771
G1 X-11.343 Y-17.435 E60.67311
G1 X-10.649 Y-17.867 E61.24975
G1 X-9.914 Y-18.285 E61.8462
G1 X-9.184 Y-18.662 E62.42575
G1 X-8.437 Y-19.011 E63.00735
G1 X-7.676 Y-19.331 E63.58969
G1 X-6.896 Y-19.623 E64.17719
G1 X-6.108 Y-19.883 E64.76251
G1 X-5.321 Y-20.107 E65.33971
G1 X-4.508 Y-20.305 E65.92996
G1 X-3.701 Y-20.468 E66.51071
G1 X-2.882 Y-20.599 E67.09577
G1 X-2.07 Y-20.696 E67.67263
G1 X-1.25 Y-20.762 E68.25292
G1 X-.411 Y-20.795 E68.84521
G1 X0.411 Y-20.795 E69.42504
G1 X1.25 Y-20.762 E70.01733
G1 X2.07 Y-20.696 E70.59762
G1 X2.882 Y-20.599 E71.17448
G1 X3.701 Y-20.468 E71.75954
G1 X4.508 Y-20.305 E72.34029
G1 X5.321 Y-20.107 E72.93054
G1 X6.108 Y-19.883 E73.50773
G1 X6.896 Y-19.623 E74.09306
G1 X7.676 Y-19.331 E74.68056
G1 X8.437 Y-19.011 E75.26289
G1 X9.184 Y-18.662 E75.8445
G1 X9.914 Y-18.285 E76.42405
G1 X10.649 Y-17.867 E77.0205
G1 X11.343 Y-17.435 E77.59714
G1 X12.018 Y-16.977 E78.17254
G1 X12.699 Y-16.473 E78.77016
G1 X13.331 Y-15.967 E79.34126
G1 X13.959 Y-15.419 E79.92919
G1 X14.56 Y-14.854 E80.51105
G1 X15.133 Y-14.27 E81.08818
G1 X15.698 Y-13.645 E81.6825
G1 X16.224 Y-13.015 E82.26143
G1 X16.736 Y-12.35 E82.85344
G1 X17.204 Y-11.691 E83.42359
G1 X17.652 Y-11.001 E84.00391
G1 X18.089 Y-10.268 E84.60588
G1 X18.468 Y-9.567 E85.16801
G1 X18.848 Y-8.797 E85.7737
G1 X19.173 Y-8.063 E86.33995
G1 X19.479 Y-7.294 E86.92377
G1 X19.755 Y-6.505 E87.51339
G1 X20.007 Y-5.687 E88.11717
G1 X20.207 Y-4.926 E88.6722
G1 X20.389 Y-4.11 E89.26195
G1 X20.539 Y-3.284 E89.85414
G1 X20.648 Y-2.506 E90.40829
G1 X20.736 Y-1.623 E91.03424
G1 X20.782 Y-.842 E91.58611
G1 X20.798 Y0.00 E92.18016
G0 X20.795 Y0.2
G0 X17.806 Y0.00
;TYPE:SKIN
G1 X17.793 Y0.738 E92.70083
G1 X17.756 Y1.363 E93.14247
G1 X17.675 Y2.18 E93.7216
G1 X17.59 Y2.785 E94.15256
G1 X17.456 Y3.526 E94.68374
G1 X17.306 Y4.202 E95.17218
G1 X17.13 Y4.867 E95.65742
G1 X16.912 Y5.576 E96.18065
G1 X16.679 Y6.242 E96.67837
G1 X16.418 Y6.897 E97.17573
G1 X16.133 Y7.543 E97.67379
G1 X15.797 Y8.222 E98.20819
G1 X15.499 Y8.774 E98.65069
G1 X15.117 Y9.414 E99.17645
G1 X14.737 Y10 E99.66911
G1 X14.322 Y10.584 E100.17448
G1 X13.885 Y11.152 E100.68001
G1 X13.461 Y11.66 E101.14676
G1 X12.954 Y12.221 E101.68015
G1 X12.454 Y12.731 E102.18395
G1 X11.959 Y13.196 E102.66303
G1 X11.402 Y13.682 E103.18447
G1 X10.876 Y14.104 E103.66016
G1 X10.293 Y14.534 E104.17116
G1 X9.712 Y14.929 E104.66674
G1 X9.125 Y15.294 E105.15433
G1 X8.498 Y15.651 E105.66328
G1 X7.862 Y15.979 E106.16806
G1 X7.236 Y16.272 E106.65562
G1 X6.556 Y16.558 E107.17598
G1 X5.886 Y16.809 E107.68068
G1 X5.248 Y17.019 E108.15447
G1 X4.558 Y17.215 E108.66045
G1 X3.838 Y17.39 E109.18312
G1 X3.179 Y17.524 E109.65749
G1 X2.456 Y17.639 E110.1739
G1 X1.785 Y17.72 E110.65066
G1 X1.087 Y17.776 E111.14461
G1 X0.345 Y17.805 E111.66841
G1 X-.345 Y17.805 E112.15513
G1 X-1.087 Y17.776 E112.67894
G1 X-1.785 Y17.72 E113.17289
G1 X-2.456 Y17.639 E113.64964
G1 X-3.179 Y17.524 E114.16606
G1 X-3.838 Y17.39 E114.64042
G1 X-4.558 Y17.215 E115.1631
G1 X-5.248 Y17.019 E115.66907
G1 X-5.886 Y16.809 E116.14287
G1 X-6.556 Y16.558 E116.64756
G1 X-7.236 Y16.272 E117.16793
G1 X-7.862 Y15.979 E117.65548
G1 X-8.498 Y15.651 E118.16026
G1 X-9.125 Y15.294 E118.66921
G1 X-9.712 Y14.929 E119.1568
G1 X-10.293 Y14.534 E119.65238
G1 X-10.876 Y14.104 E120.16339
G1 X-11.402 Y13.682 E120.63908
G1 X-11.959 Y13.196 E121.16052
G1 X-12.454 Y12.731 E121.63959
G1 X-12.954 Y12.221 E122.14339
G1 X-13.461 Y11.66 E122.67678
G1 X-13.885 Y11.152 E123.14354
G1 X-14.322 Y10.584 E123.64906
G1 X-14.737 Y10 E124.15444
G1 X-15.117 Y9.414 E124.6471
G1 X-15.499 Y8.774 E125.17286
G1 X-15.797 Y8.222 E125.61535
G1 X-16.133 Y7.543 E126.14975
G1 X-16.418 Y6.897 E126.64781
G1 X-16.679 Y6.242 E127.14518
G1 X-16.912 Y5.576 E127.64289
G1 X-17.13 Y4.867 E128.16612
G1 X-17.306 Y4.202 E128.65136
G1 X-17.456 Y3.526 E129.13981
G1 X-17.59 Y2.785 E129.67099
G1 X-17.675 Y2.18 E130.10194
G1 X-17.756 Y1.363 E130.68108
G1 X-17.793 Y0.738 E131.12272
G1 X-17.806 Y0.00 E131.64338
G1 X-17.793 Y-.738 E132.16405
G1 X-17.757 Y-1.36 E132.60354
G1 X-17.672 Y-2.209 E133.20541
G1 X-17.59 Y-2.784 E133.61512
G1 X-17.456 Y-3.526 E134.14699
G1 X-17.306 Y-4.202 E134.63543
G1 X-17.13 Y-4.867 E135.12067
G1 X-16.912 Y-5.576 E135.64391
G1 X-16.679 Y-6.242 E136.14162
G1 X-16.418 Y-6.897 E136.63898
G1 X-16.133 Y-7.543 E137.13705
G1 X-15.798 Y-8.22 E137.66987
G1 X-15.493 Y-8.784 E138.12216
G1 X-15.117 Y-9.414 E138.63969
G1 X-14.737 Y-10 E139.13235
G1 X-14.332 Y-10.57 E139.62559
G1 X-13.871 Y-11.169 E140.15877
G1 X-13.461 Y-11.66 E140.60999
G1 X-12.954 Y-12.221 E141.14338
G1 X-12.454 Y-12.731 E141.64718
G1 X-11.959 Y-13.196 E142.12625
G1 X-11.402 Y-13.682 E142.6477
G1 X-10.876 Y-14.104 E143.12339
G1 X-10.293 Y-14.534 E143.63439
G1 X-9.712 Y-14.929 E144.12997
G1 X-9.125 Y-15.294 E144.61756
G1 X-8.498 Y-15.651 E145.12651
G1 X-7.862 Y-15.979 E145.63129
G1 X-7.236 Y-16.272 E146.11884
G1 X-6.556 Y-16.558 E146.63921
G1 X-5.886 Y-16.809 E147.1439
G1 X-5.254 Y-17.017 E147.61324
G1 X-4.543 Y-17.219 E148.13462
G1 X-3.844 Y-17.389 E148.64207
G1 X-3.179 Y-17.524 E149.12072
G1 X-2.456 Y-17.639 E149.63714
G1 X-1.785 Y-17.72 E150.11389
G1 X-1.087 Y-17.776 E150.60784
G1 X-.345 Y-17.805 E151.13164
G1 X0.345 Y-17.805 E151.61837
G1 X1.087 Y-17.776 E152.14217
G1 X1.785 Y-17.72 E152.63612
G1 X2.456 Y-17.639 E153.11288
G1 X3.179 Y-17.524 E153.62929
G1 X3.844 Y-17.389 E154.10794
G1 X4.543 Y-17.219 E154.61539
G1 X5.254 Y-17.017 E155.13677
G1 X5.886 Y-16.809 E155.60611
G1 X6.556 Y-16.558 E156.1108
G1 X7.236 Y-16.272 E156.63117
G1 X7.862 Y-15.979 E157.11872
G1 X8.498 Y-15.651 E157.6235
G1 X9.125 Y-15.294 E158.13245
G1 X9.712 Y-14.929 E158.62004
G1 X10.293 Y-14.534 E159.11562
G1 X10.876 Y-14.104 E159.62662
G1 X11.402 Y-13.682 E160.10231
G1 X11.959 Y-13.196 E160.62376
G1 X12.454 Y-12.731 E161.10283
G1 X12.954 Y-12.221 E161.60663
G1 X13.461 Y-11.66 E162.14002
G1 X13.871 Y-11.169 E162.59124
G1 X14.332 Y-10.57 E163.12442
G1 X14.737 Y-10 E163.61766
G1 X15.117 Y-9.414 E164.11032
G1 X15.493 Y-8.784 E164.62785
G1 X15.798 Y-8.22 E165.08014
G1 X16.133 Y-7.543 E165.61296
G1 X16.418 Y-6.897 E166.11103
G1 X16.679 Y-6.242 E166.60839
G1 X16.912 Y-5.576 E167.10611
G1 X17.13 Y-4.867 E167.62934
G1 X17.306 Y-4.202 E168.11458
G1 X17.456 Y-3.526 E168.60302
G1 X17.59 Y-2.784 E169.13489
G1 X17.672 Y-2.209 E169.5446
G1 X17.757 Y-1.36 E170.14647
G1 X17.793 Y-.738 E170.58597
G1 X17.806 Y0.00 E171.10663
G0 X0.252 Y-2.796
G1 X0.279 Y-2.794 E171.12573
G1 X0.372 Y-2.783 E171.19179
G1 X0.474 Y-2.767 E171.26462
G1 X0.557 Y-2.75 E171.32438
G1 X0.755 Y-2.701 E171.46826
G1 X0.831 Y-2.68 E171.52388
G1 X0.908 Y-2.655 E171.58099
G1 X1.032 Y-2.608 E171.67453
G1 X1.143 Y-2.562 E171.75928
G1 X1.23 Y-2.521 E171.82713
G1 X1.338 Y-2.465 E171.91294
G1 X1.492 Y-2.378 E172.03771
G1 X1.537 Y-2.35 E172.0751
G1 X1.609 Y-2.301 E172.13653
G1 X1.701 Y-2.233 E172.21723
G1 X1.82 Y-2.138 E172.32464
G1 X1.877 Y-2.088 E172.37812
G1 X1.924 Y-2.044 E172.42354
G1 X2.053 Y-1.912 E172.55373
G1 X2.136 Y-1.821 E172.64061
G1 X2.29 Y-1.621 E172.81867
G1 X2.315 Y-1.585 E172.84959
G1 X2.389 Y-1.472 E172.94487
G1 X2.455 Y-1.362 E173.03535
G1 X2.483 Y-1.311 E173.0764
G1 X2.525 Y-1.226 E173.14327
G1 X2.609 Y-1.036 E173.28981
G1 X2.624 Y-.998 E173.31863
G1 X2.633 Y-.972 E173.33804
G1 X2.714 Y-.709 E173.53216
G1 X2.729 Y-.656 E173.57101
G1 X2.753 Y-.549 E173.64836
G1 X2.772 Y-.439 E173.72711
G1 X2.778 Y-.403 E173.75285
G1 X2.799 Y-.194 E173.90102
G1 X2.803 Y0.075 E174.09079
G1 X2.801 Y0.159 E174.15006
G1 X2.778 Y0.398 E174.31943
G1 X2.771 Y0.445 E174.35295
G1 X2.755 Y0.536 E174.41813
G1 X2.727 Y0.66 E174.5078
G1 X2.717 Y0.699 E174.5362
G1 X2.644 Y0.939 E174.71315
G1 X2.618 Y1.011 E174.76715
G1 X2.602 Y1.052 E174.7982
G1 X2.543 Y1.185 E174.90083
G1 X2.474 Y1.327 E175.0122
G1 X2.455 Y1.362 E175.04029
G1 X2.381 Y1.485 E175.14154
G1 X2.329 Y1.565 E175.20885
G1 X2.26 Y1.662 E175.29282
G1 X2.19 Y1.754 E175.37436
G1 X2.13 Y1.825 E175.43994
G1 X2.028 Y1.938 E175.54732
G1 X1.945 Y2.022 E175.63062
G1 X1.862 Y2.101 E175.71144
G1 X1.822 Y2.136 E175.74894
G1 X1.701 Y2.233 E175.85833
G1 X1.609 Y2.301 E175.93903
G1 X1.537 Y2.35 E176.00046
G1 X1.492 Y2.378 E176.03785
G1 X1.338 Y2.465 E176.16262
G1 X1.245 Y2.514 E176.23677
G1 X1.124 Y2.57 E176.33082
G1 X1.023 Y2.612 E176.40798
G1 X0.915 Y2.653 E176.48946
G1 X0.849 Y2.674 E176.53832
G1 X0.712 Y2.713 E176.6388
G1 X0.607 Y2.739 E176.7151
G1 X0.518 Y2.757 E176.77915
G1 X0.33 Y2.787 E176.91345
G1 X0.258 Y2.796 E176.96463
G1 X0.257 Y2.796 E176.96534
G1 X0.025 Y2.805 E177.12911
G1 X-0.025 Y2.805 E177.16438
G1 X-.257 Y2.796 E177.32816
G1 X-.33 Y2.787 E177.38004
G1 X-.518 Y2.757 E177.51433
G1 X-.607 Y2.739 E177.57838
G1 X-.712 Y2.713 E177.65469
G1 X-.849 Y2.674 E177.75516
G1 X-.915 Y2.653 E177.80402
G1 X-1.023 Y2.612 E177.88551
G1 X-1.124 Y2.57 E177.96267
G1 X-1.245 Y2.514 E178.05672
G1 X-1.338 Y2.465 E178.13087
G1 X-1.492 Y2.378 E178.25564
G1 X-1.537 Y2.35 E178.29302
G1 X-1.609 Y2.301 E178.35446
G1 X-1.701 Y2.233 E178.43516
G1 X-1.822 Y2.136 E178.54455
G1 X-1.862 Y2.101 E178.58204
G1 X-1.945 Y2.022 E178.66287
G1 X-2.028 Y1.938 E178.74617
G1 X-2.13 Y1.825 E178.85355
G1 X-2.19 Y1.754 E178.91912
G1 X-2.26 Y1.662 E179.00067
G1 X-2.329 Y1.565 E179.08464
G1 X-2.381 Y1.485 E179.15194
G1 X-2.455 Y1.362 E179.2532
G1 X-2.474 Y1.327 E179.28129
G1 X-2.543 Y1.185 E179.39265
G1 X-2.602 Y1.052 E179.49529
G1 X-2.618 Y1.011 E179.52633
G1 X-2.644 Y0.939 E179.58033
G1 X-2.717 Y0.699 E179.75729
G1 X-2.727 Y0.66 E179.78569
G1 X-2.755 Y0.536 E179.87536
G1 X-2.771 Y0.445 E179.94053
G1 X-2.778 Y0.398 E179.97405
G1 X-2.801 Y0.159 E180.14342
G1 X-2.803 Y0.075 E180.20269
G1 X-2.799 Y-.194 E180.39246
G1 X-2.778 Y-.403 E180.54063
G1 X-2.772 Y-.439 E180.56638
G1 X-2.753 Y-.549 E180.64512
G1 X-2.729 Y-.656 E180.72247
G1 X-2.714 Y-.709 E180.76133
G1 X-2.633 Y-.972 E180.95545
G1 X-2.624 Y-.998 E180.97485
G1 X-2.609 Y-1.036 E181.00367
G1 X-2.525 Y-1.226 E181.15021
G1 X-2.483 Y-1.311 E181.21709
G1 X-2.455 Y-1.362 E181.25813
G1 X-2.389 Y-1.472 E181.34862
G1 X-2.315 Y-1.585 E181.4439
G1 X-2.29 Y-1.621 E181.47482
G1 X-2.136 Y-1.821 E181.65287
G1 X-2.053 Y-1.912 E181.73975
G1 X-1.924 Y-2.044 E181.86995
G1 X-1.877 Y-2.088 E181.91536
G1 X-1.82 Y-2.138 E181.96885
G1 X-1.701 Y-2.233 E182.07626
G1 X-1.609 Y-2.301 E182.15696
G1 X-1.537 Y-2.35 E182.21839
G1 X-1.492 Y-2.378 E182.25578
G1 X-1.338 Y-2.465 E182.38054
G1 X-1.23 Y-2.521 E182.46636
G1 X-1.143 Y-2.562 E182.5342
G1 X-1.032 Y-2.608 E182.61896
G1 X-.908 Y-2.655 E182.7125
G1 X-.831 Y-2.68 E182.76961
G1 X-.755 Y-2.701 E182.82522
G1 X-.557 Y-2.75 E182.96911
G1 X-.474 Y-2.767 E183.02887
G1 X-.372 Y-2.783 E183.1017
G1 X-.279 Y-2.794 E183.16776
G1 X-.252 Y-2.796 E183.18686
G1 X-0.027 Y-2.805 E183.3457
G1 X0.027 Y-2.805 E183.38379
G1 X0.252 Y-2.796 E183.54263
G0 X0.431 Y-5.792
G1 X0.589 Y-5.779 E183.65446
G1 X0.793 Y-5.754 E183.79944
G1 X0.994 Y-5.722 E183.94301
G1 X1.229 Y-5.674 E184.1122
G1 X1.523 Y-5.602 E184.32571
G1 X1.712 Y-5.549 E184.46417
G1 X1.89 Y-5.49 E184.59645
G1 X2.147 Y-5.394 E184.78997
G1 X2.347 Y-5.31 E184.94299
G1 X2.568 Y-5.207 E185.11498
G1 X2.77 Y-5.102 E185.27557
G1 X3.019 Y-4.961 E185.47742
G1 X3.168 Y-4.869 E185.60095
G1 X3.346 Y-4.748 E185.75277
G1 X3.53 Y-4.612 E185.91417
G1 X3.74 Y-4.444 E186.10387
G1 X3.883 Y-4.319 E186.23785
G1 X4.039 Y-4.172 E186.38905
G1 X4.231 Y-3.975 E186.5831
G1 X4.42 Y-3.767 E186.78134
G1 X4.466 Y-3.712 E186.83192
G1 X4.702 Y-3.406 E187.10451
G1 X4.79 Y-3.282 E187.21177
G1 X4.946 Y-3.042 E187.41368
G1 X5.061 Y-2.85 E187.57155
G1 X5.149 Y-2.688 E187.7016
G1 X5.249 Y-2.485 E187.86123
G1 X5.367 Y-2.217 E188.06779
G1 X5.437 Y-2.044 E188.19943
G1 X5.485 Y-1.904 E188.30383
G1 X5.6 Y-1.529 E188.58051
G1 X5.645 Y-1.363 E188.70183
G1 X5.693 Y-1.148 E188.85723
G1 X5.737 Y-.902 E189.03351
G1 X5.758 Y-.758 E189.13616
G1 X5.793 Y-.403 E189.38779
G1 X5.797 Y-.338 E189.43373
G1 X5.804 Y0.065 E189.71805
G1 X5.799 Y0.29 E189.8768
G1 X5.794 Y0.377 E189.93827
G1 X5.756 Y0.762 E190.21117
G1 X5.737 Y0.9 E190.30943
G1 X5.696 Y1.13 E190.47423
G1 X5.64 Y1.38 E190.65495
G1 X5.598 Y1.538 E190.77027
G1 X5.501 Y1.855 E191.00411
G1 X5.43 Y2.059 E191.15648
G1 X5.36 Y2.234 E191.28944
G1 X5.27 Y2.438 E191.44672
G1 X5.141 Y2.7 E191.65272
G1 X5.064 Y2.843 E191.76728
G1 X4.923 Y3.078 E191.9606
G1 X4.8 Y3.267 E192.11967
G1 X4.678 Y3.44 E192.26899
G1 X4.532 Y3.63 E192.43802
G1 X4.394 Y3.794 E192.58921
G1 X4.215 Y3.992 E192.77749
G1 X4.041 Y4.17 E192.95308
G1 X3.883 Y4.319 E193.10627
G1 X3.74 Y4.444 E193.24025
G1 X3.53 Y4.612 E193.42995
G1 X3.346 Y4.748 E193.59135
G1 X3.168 Y4.869 E193.74318
G1 X3.019 Y4.961 E193.8667
